X:1
T:24 Waltzes
T:24 Waltzes, No. 1
T:Carl Czerny
C:Carl Czerny
%%score { 1 | ( 2 3 ) }
L:1/8
Q:1/4=172
M:3/4
K:A
V:1 treble nm="Piano" snm="Pno."
V:2 bass 
V:3 bass 
V:1
"^Vivace" Te^d |!ped! (e2 c'2) c'2!ped-up! |!ped! (Pc'2 ba!ped-up! ga) | .b2{/^d'} .e'2{/d'} .e'2 | %4
 .b2{/^d'} .e'2{/d'} .e'2 |!ped! (e2 .c'2) .c'2!ped-up! |!ped! (Pc'2 ba!ped-up! ga) | %7
 .b2{/^d'} .e'2{/d'} .e'2 | a2 z2 :: (Pag |!ped! f2 c'2 b2)!ped-up! |!ped! (b2 e2)!ped-up! (Pag | %12
!ped! f2 c'!ped-up!b c'b) |!ped! (b2 e2)!ped-up!!f! Pd'c' | %14
 b2!ped!!8va(!{/^d''} [e'e'']2{/d''} [e'e'']2!ped-up! | ([e'e'']2 .d'').c'' .b'.a' | %16
 (Pg'f') .e'.d' .c'.b | a2 z2!8va)! :| %18
V:2
 z2 | A,,2 [A,CE]2 !wedge![A,CE]2 | C,2 [A,CE]2 !wedge![A,CE]2 | .E,2 .[G,B,DE]2 .[G,B,DE]2 | %4
 .A,2 .[CE]2 .[CE]2 | A,,2 [A,CE]2 [A,CE]2 | C,2 [A,CE]2 !wedge![A,CE]2 | %7
 .E,2 .[G,B,DE]2 .[G,B,DE]2 | ([A,C]2 !tenuto!A,,2) :: z2 | B,,2 [A,B,^D]2 [A,B,D]2 | %11
 E,2 [G,B,E]2 !wedge![G,B,E]2 | B,,2 !tenuto![A,B,^D]2 !tenuto![A,B,D]2 | E,2 [G,B,E]2 [G,B,E]2 | %14
 x2 [G,B,DE]2 [G,B,DE]2 | x2 [CE]2 [CE]2 | x2 [G,B,DE]2 [G,B,DE]2 | ([A,C]2 !tenuto!A,,2) :| %18
V:3
 x2 | x6 | x6 | x6 | x6 | x6 | x6 | x6 | x4 :: x2 | x6 | x6 | x6 | x6 | E,6 | A,6 | E,6 | x4 :| %18

